X:156
T:
S:Efter Elisabet Olofsdotter, Flors i Burs.
M:3/4
L:1/8
K:D
F|A> F G E LF> G|A> F G E LF z|
w:U Las-sä läi-lä däu. u Las-sä läi-lä däu,
A F G F D F|A2 d2 z:|B G B2 c d|
w:kumm u fölg mi y-var gär-dä! Ust u ka-kå u
A2 A F A2|G F E2 B A|G2 F3 z|B G B2 c d|
w:bränn-väin dä-till skatt däu fa för be-svä-rä. Ust u ka-kå u
A2 A F A2|G F EG F E|E2 D3 z|]
w:bränn-väin dä-till skatt däu fa_ för be-svä-rä.
